<?xml version="1.0" encoding="UTF-8"?>
<map version="1.10" tiledversion="1.11.0" orientation="orthogonal" renderorder="right-down" width="24" height="14" tilewidth="16" tileheight="16" infinite="0" nextlayerid="7" nextobjectid="11">
<imagelayer id="1" name="albedo04"><image source="../v04/albedo04.png" width="384" height="216"/></imagelayer><imagelayer id="2" name="emit04"><image source="../v04/emit04.png" width="384" height="216"/></imagelayer><imagelayer id="3" name="robot04"><image source="../v04/robot04.png" width="384" height="216"/></imagelayer><imagelayer id="4" name="robot_emit04"><image source="../v04/robot_emit04.png" width="384" height="216"/></imagelayer><objectgroup id="6" name="lights"><object id="1" name="pool_1" x="84" y="74"><properties><property name="intensity" type="float" value="0.55"/></properties><polygon points="0,0 42,0 0,100 -46,100"/></object><object id="2" name="pool_2" x="228" y="74"><properties><property name="intensity" type="float" value="0.55"/></properties><polygon points="0,0 42,0 0,100 -46,100"/></object><object id="3" name="shaft_1" x="92" y="30"><polygon points="0,0 32,0 -8,144 -54,144"/></object><object id="4" name="shaft_2" x="236" y="30"><polygon points="0,0 32,0 -8,144 -54,144"/></object><object id="5" name="lamp" x="259" y="36" width="104" height="72"><properties><property name="intensity" type="float" value="0.5"/></properties><ellipse/></object><object id="6" name="lamp_core" x="293" y="58" width="36" height="24"><properties><property name="intensity" type="float" value="0.35"/></properties><ellipse/></object><object id="7" name="win_glow_1" x="68" y="26" width="80" height="52"><properties><property name="intensity" type="float" value="0.3"/></properties><ellipse/></object><object id="8" name="win_glow_2" x="212" y="26" width="80" height="52"><properties><property name="intensity" type="float" value="0.3"/></properties><ellipse/></object><object id="9" name="robot_glow" x="183" y="145" width="20" height="14"><properties><property name="intensity" type="float" value="0.12"/></properties><ellipse/></object><object id="10" name="robot" x="186" y="146"><point/></object></objectgroup>
</map>