<?xml version="1.0" encoding="UTF-8"?>
<map version="1.10" tiledversion="1.11.0" orientation="orthogonal" renderorder="right-down" width="28" height="16" tilewidth="16" tileheight="16" infinite="0" nextlayerid="7" nextobjectid="30">
<imagelayer id="1" name="albedo06"><image source="../v06/albedo06.png" width="448" height="288"/></imagelayer><imagelayer id="2" name="emit06_static"><image source="../v06/emit06_static.png" width="448" height="288"/></imagelayer><imagelayer id="3" name="alarm_idle06"><image source="../v06/alarm_idle06.png" width="448" height="288"/></imagelayer><imagelayer id="4" name="alarm_ring06"><image source="../v06/alarm_ring06.png" width="448" height="288"/></imagelayer><imagelayer id="5" name="alarm_off06"><image source="../v06/alarm_off06.png" width="448" height="288"/></imagelayer><objectgroup id="6" name="lights"><object id="1" name="pool_1" x="140" y="100"><properties><property name="intensity" type="float" value="0.55"/></properties><polygon points="0,0 42,0 0,100 -46,100"/></object><object id="2" name="pool_2" x="284" y="100"><properties><property name="intensity" type="float" value="0.55"/></properties><polygon points="0,0 42,0 0,100 -46,100"/></object><object id="3" name="shaft_1" x="148" y="56"><polygon points="0,0 32,0 -8,144 -54,144"/></object><object id="4" name="shaft_2" x="292" y="56"><polygon points="0,0 32,0 -8,144 -54,144"/></object><object id="5" name="lamp" x="315" y="62" width="104" height="72"><properties><property name="intensity" type="float" value="0.5"/></properties><ellipse/></object><object id="6" name="lamp_core" x="349" y="84" width="36" height="24"><properties><property name="intensity" type="float" value="0.35"/></properties><ellipse/></object><object id="7" name="win_glow_1" x="124" y="52" width="80" height="52"><properties><property name="intensity" type="float" value="0.3"/></properties><ellipse/></object><object id="8" name="win_glow_2" x="268" y="52" width="80" height="52"><properties><property name="intensity" type="float" value="0.3"/></properties><ellipse/></object><object id="9" name="robot_glow" x="282" y="91" width="20" height="14"><properties><property name="intensity" type="float" value="0.1"/></properties><ellipse/></object><object id="11" name="candle" x="131" y="107" width="32" height="24"><properties><property name="intensity" type="float" value="0.22"/></properties><ellipse/></object><object id="12" name="floorlamp" x="378" y="142" width="88" height="60"><properties><property name="intensity" type="float" value="0.42"/></properties><ellipse/></object><object id="13" name="floorlamp_core" x="406" y="150" width="32" height="20"><properties><property name="intensity" type="float" value="0.3"/></properties><ellipse/></object><object id="14" name="radio" x="20" y="117" width="20" height="14"><properties><property name="intensity" type="float" value="0.12"/></properties><ellipse/></object><object id="15" name="string_0" x="26" y="9" width="56" height="22"><properties><property name="intensity" type="float" value="0.11"/></properties><ellipse/></object><object id="16" name="string_1" x="88" y="9" width="56" height="22"><properties><property name="intensity" type="float" value="0.11"/></properties><ellipse/></object><object id="17" name="string_2" x="152" y="9" width="56" height="22"><properties><property name="intensity" type="float" value="0.11"/></properties><ellipse/></object><object id="18" name="string_3" x="216" y="9" width="56" height="22"><properties><property name="intensity" type="float" value="0.11"/></properties><ellipse/></object><object id="19" name="string_4" x="280" y="9" width="56" height="22"><properties><property name="intensity" type="float" value="0.11"/></properties><ellipse/></object><object id="20" name="string_5" x="344" y="9" width="56" height="22"><properties><property name="intensity" type="float" value="0.11"/></properties><ellipse/></object><object id="21" name="string_6" x="408" y="9" width="56" height="22"><properties><property name="intensity" type="float" value="0.11"/></properties><ellipse/></object><object id="10" name="robot" x="292" y="106"><point/></object></objectgroup>
</map>