<?xml version="1.0" encoding="UTF-8"?>
<map version="1.10" tiledversion="1.11" orientation="orthogonal" renderorder="right-down" width="48" height="27" tilewidth="8" tileheight="8" infinite="0" nextlayerid="6" nextobjectid="22">
 <properties>
  <property name="native_w" type="int" value="384"/><property name="native_h" type="int" value="216"/>
  <property name="floor_y" type="int" value="128"/>
 </properties>
 <tileset firstgid="1" source="attic_tiles.tsx"/>
 <tileset firstgid="17" source="props.tsx"/>
 <layer id="1" name="wall" width="48" height="27">
  <data encoding="csv">
7,7,7,7,7,7,7,7,7,7,7,7,7,7,7,7,7,7,7,7,7,7,7,7,7,7,7,7,7,7,7,7,7,7,7,7,7,7,7,7,7,7,7,7,7,7,7,7,
4,6,2,6,5,6,2,1,5,6,6,4,3,1,5,4,1,1,5,6,1,5,1,1,1,6,5,1,2,1,3,1,5,6,4,6,1,1,4,1,13,15,2,1,1,5,1,6,
5,1,3,4,2,4,4,2,6,4,1,3,1,1,6,4,4,1,1,4,1,2,2,1,2,3,2,1,3,3,1,1,2,6,1,3,4,1,1,1,13,15,1,1,6,1,4,3,
1,1,5,1,1,1,2,1,1,1,5,1,5,1,1,2,5,3,1,1,4,1,5,5,1,1,5,2,5,1,1,1,6,1,1,1,1,1,6,1,13,16,5,6,1,6,6,1,
3,5,2,4,1,1,1,1,4,1,5,1,6,2,6,5,5,4,1,3,1,1,2,4,1,6,2,1,1,5,3,6,1,1,4,5,1,6,6,5,13,15,2,5,1,1,1,4,
1,3,6,1,1,1,1,1,6,5,1,4,1,1,1,2,4,1,1,1,1,4,3,1,1,1,1,2,6,1,5,2,1,1,3,3,1,2,3,1,13,15,1,1,1,5,6,1,
5,6,1,3,1,5,2,5,6,2,3,4,1,4,1,1,6,1,1,1,5,1,1,5,1,5,2,5,6,4,6,1,6,4,3,1,3,6,1,1,13,16,1,1,1,2,6,1,
1,1,1,1,1,4,6,1,3,1,2,6,2,4,3,2,5,1,1,3,6,4,1,3,1,1,1,4,1,1,2,6,1,3,1,5,4,1,1,1,13,15,1,1,1,6,1,6,
3,4,3,5,5,4,3,3,5,1,3,6,3,1,1,3,2,6,5,1,1,1,1,3,5,5,1,5,1,1,3,1,1,5,1,1,4,2,1,1,13,15,1,4,6,1,4,1,
1,2,1,5,6,1,6,1,6,6,1,2,2,5,1,6,6,2,4,1,3,1,3,2,4,1,2,2,1,5,2,1,6,1,1,3,4,4,2,3,13,16,1,3,6,4,3,1,
1,1,5,1,4,1,6,1,1,1,4,6,1,5,1,1,1,1,6,3,1,1,1,3,5,3,4,1,1,1,4,4,1,1,6,1,5,5,6,1,13,15,2,6,2,1,5,3,
2,3,1,6,2,3,4,3,1,4,1,4,2,1,4,6,5,1,6,2,1,1,1,1,4,6,1,5,2,1,5,2,6,3,3,1,5,6,5,1,13,15,1,1,1,1,1,3,
2,4,1,2,1,3,6,1,1,5,3,1,1,4,4,1,1,1,6,1,3,1,1,1,1,1,1,1,1,3,1,1,1,1,3,1,1,1,1,6,13,16,3,1,2,1,1,1,
3,1,6,3,6,1,1,1,5,2,1,1,2,6,4,1,1,1,1,1,1,2,6,1,6,3,5,6,6,1,1,2,6,1,1,5,1,1,1,2,13,15,3,3,5,4,6,1,
1,1,6,3,1,1,3,2,3,1,3,1,3,1,3,6,2,1,1,5,2,5,5,1,5,3,1,1,1,1,6,1,4,1,1,2,1,1,1,2,13,15,1,6,1,4,1,6,
10,10,10,10,10,10,10,10,10,10,10,10,10,10,10,10,10,10,10,10,10,10,10,10,10,10,10,10,10,10,10,10,10,10,10,10,10,10,10,10,13,15,10,10,10,10,10,10,
0,0,0,0,0,0,0,0,0,0,0,0,0,0,0,0,0,0,0,0,0,0,0,0,0,0,0,0,0,0,0,0,0,0,0,0,0,0,0,0,0,0,0,0,0,0,0,0,
0,0,0,0,0,0,0,0,0,0,0,0,0,0,0,0,0,0,0,0,0,0,0,0,0,0,0,0,0,0,0,0,0,0,0,0,0,0,0,0,0,0,0,0,0,0,0,0,
0,0,0,0,0,0,0,0,0,0,0,0,0,0,0,0,0,0,0,0,0,0,0,0,0,0,0,0,0,0,0,0,0,0,0,0,0,0,0,0,0,0,0,0,0,0,0,0,
0,0,0,0,0,0,0,0,0,0,0,0,0,0,0,0,0,0,0,0,0,0,0,0,0,0,0,0,0,0,0,0,0,0,0,0,0,0,0,0,0,0,0,0,0,0,0,0,
0,0,0,0,0,0,0,0,0,0,0,0,0,0,0,0,0,0,0,0,0,0,0,0,0,0,0,0,0,0,0,0,0,0,0,0,0,0,0,0,0,0,0,0,0,0,0,0,
0,0,0,0,0,0,0,0,0,0,0,0,0,0,0,0,0,0,0,0,0,0,0,0,0,0,0,0,0,0,0,0,0,0,0,0,0,0,0,0,0,0,0,0,0,0,0,0,
0,0,0,0,0,0,0,0,0,0,0,0,0,0,0,0,0,0,0,0,0,0,0,0,0,0,0,0,0,0,0,0,0,0,0,0,0,0,0,0,0,0,0,0,0,0,0,0,
0,0,0,0,0,0,0,0,0,0,0,0,0,0,0,0,0,0,0,0,0,0,0,0,0,0,0,0,0,0,0,0,0,0,0,0,0,0,0,0,0,0,0,0,0,0,0,0,
0,0,0,0,0,0,0,0,0,0,0,0,0,0,0,0,0,0,0,0,0,0,0,0,0,0,0,0,0,0,0,0,0,0,0,0,0,0,0,0,0,0,0,0,0,0,0,0,
0,0,0,0,0,0,0,0,0,0,0,0,0,0,0,0,0,0,0,0,0,0,0,0,0,0,0,0,0,0,0,0,0,0,0,0,0,0,0,0,0,0,0,0,0,0,0,0,
0,0,0,0,0,0,0,0,0,0,0,0,0,0,0,0,0,0,0,0,0,0,0,0,0,0,0,0,0,0,0,0,0,0,0,0,0,0,0,0,0,0,0,0,0,0,0,0
</data>
 </layer>
 <imagelayer id="2" name="floor" offsetx="0" offsety="128">
  <image source="../sprites/floor.png" width="384" height="88"/>
 </imagelayer>
 <objectgroup id="3" name="props">
  <object id="1" name="window" gid="17" x="43" y="75" width="61" height="53"/>
  <object id="2" name="plant" gid="18" x="82" y="71" width="13" height="21"/>
  <object id="3" name="shelf_top" gid="19" x="3" y="71" width="35" height="22"/>
  <object id="4" name="shelf_low" gid="20" x="3" y="97" width="35" height="22"/>
  <object id="5" name="paper_flower" gid="21" x="231" y="41" width="18" height="22"/>
  <object id="6" name="paper_swatch" gid="22" x="255" y="33" width="22" height="18"/>
  <object id="7" name="paper_mount" gid="23" x="261" y="59" width="24" height="16"/>
  <object id="8" name="paper_list" gid="24" x="289" y="49" width="16" height="20"/>
  <object id="9" name="door" gid="25" x="333" y="128" width="47" height="95"/>
  <object id="10" name="rug" gid="26" x="96" y="208" width="200" height="48"/>
  <object id="11" name="stool" gid="27" x="39" y="168" width="25" height="23"/>
  <object id="12" name="paper_balls" gid="28" x="20" y="214" width="322" height="52"/>
 </objectgroup>
 <objectgroup id="4" name="lights" visible="0">
  <object id="13" name="sun_pool" x="106" y="172" width="84" height="28"><properties><property name="intensity" type="float" value="4.2"/><property name="mullions" type="bool" value="true"/></properties><ellipse/></object>
  <object id="14" name="wall_patch" x="96" y="70" width="34" height="96"><properties><property name="intensity" type="float" value="1.3"/><property name="angle" type="float" value="-33.0"/></properties><ellipse/></object>
  <object id="15" name="window_glow" x="20" y="-4" width="104" height="100"><properties><property name="intensity" type="float" value="0.6"/></properties><ellipse/></object>
  <object id="16" name="robot_shadow" x="138" y="183" width="44" height="8"><properties><property name="intensity" type="float" value="-3.6"/></properties><ellipse/></object>
  <object id="17" name="stool_shadow" x="36" y="164" width="32" height="6"><properties><property name="intensity" type="float" value="-0.9"/></properties><ellipse/></object>
  <object id="18" name="sun_shaft" x="0" y="0"><polygon points="54,34 88,28 186,186 114,190"/></object>
  <object id="19" name="robot_still" x="158" y="170"><point/></object>
  <object id="20" name="robot_home" x="214" y="196"><point/></object>
 </objectgroup>
</map>
